lib/preview/nrk-logo-preview-nrk-folkemusikk-title-below-on-light.svg

<svg width="96" height="31" viewBox="0 0 96 31" fill="none" xmlns="http://www.w3.org/2000/svg">
<path d="M0 13.0007V1.00182H3.93719V13.0007H0ZM9.29381 2.91151L11.5581 13.0007H7.24917L4.54549 1.00182H6.96218C7.51635 0.99463 8.05406 1.18998 8.4745 1.55112C8.89562 1.89711 9.18495 2.37743 9.29381 2.91151ZM12.1495 13.0007V1.00182H16.0867V13.0007H12.1495ZM19.0605 5.56483C18.6362 5.56897 18.2188 5.45796 17.8525 5.2437C17.4912 5.03485 17.1911 4.73469 16.9823 4.37333C16.7678 4.00706 16.6568 3.58949 16.661 3.16505C16.6561 2.74319 16.7672 2.32811 16.9823 1.96516C17.1933 1.60772 17.4931 1.31083 17.8525 1.10325C18.2189 0.889235 18.6362 0.778247 19.0605 0.782116C19.4822 0.777574 19.8971 0.888661 20.2602 1.10325C20.616 1.31265 20.9127 1.60929 21.122 1.96516C21.3368 2.32821 21.4479 2.74323 21.4433 3.16505C21.4473 3.58946 21.3363 4.00696 21.122 4.37333C20.9149 4.73311 20.6179 5.03301 20.2602 5.2437C19.8971 5.45871 19.4819 5.56982 19.0599 5.56483H19.0605ZM22.0516 13.0007V1.00182H25.9892V13.0007H22.0516ZM30.9737 7.55897C30.9848 7.57061 31.0693 7.70862 31.2272 7.973C31.3851 8.23739 31.5906 8.57542 31.8439 8.98702C32.0974 9.39844 32.3649 9.83499 32.6463 10.2967C32.9278 10.7585 33.1926 11.1951 33.4408 11.6065C33.6881 12.0179 33.9697 12.4827 34.2857 13.0007H29.9598C29.6893 12.5613 29.4441 12.1642 29.2245 11.8093C29.0048 11.4544 28.7713 11.0713 28.5238 10.6601C28.2758 10.2492 28.0306 9.84927 27.7882 9.4602C27.5458 9.07113 27.3375 8.73035 27.1633 8.43779C26.9883 8.14505 26.8671 7.94786 26.7997 7.84627C26.6325 7.59418 26.5336 7.30303 26.5127 7.00128C26.5294 6.71167 26.6226 6.43171 26.7828 6.18984C26.8504 6.07718 26.9743 5.87716 27.1545 5.58986C27.3348 5.30257 27.546 4.96179 27.7882 4.56746C28.0304 4.17313 28.2756 3.77034 28.5238 3.35911C28.772 2.94788 29.0056 2.56197 29.2245 2.20144C29.4445 1.84128 29.6897 1.44132 29.9598 1.00155H34.2857L30.9396 6.46023C30.8361 6.6223 30.7777 6.80908 30.7706 7.00128C30.7818 7.20306 30.8522 7.39705 30.9731 7.55897H30.9737Z" fill="#0A2343"/>
<path d="M0 30.1451H1.77453V25.1933H6.30372L6.48967 23.7233H1.77453V19.6332H7.90929V18.146H0V30.1451Z" fill="#7B0A02"/>
<path d="M14.9482 21.8815C14.2441 21.5074 13.4553 21.3211 12.6582 21.3407C11.8537 21.3224 11.0584 21.5146 10.3511 21.8984C9.69833 22.2639 9.16455 22.8095 8.81346 23.4701C8.43184 24.2113 8.24281 25.0366 8.26388 25.87C8.24241 26.6968 8.41918 27.5167 8.77935 28.2613C9.10306 28.9112 9.61949 29.4453 10.2581 29.7908C10.9456 30.1509 11.713 30.3312 12.4889 30.3147C13.3012 30.3308 14.1042 30.1389 14.8214 29.7573C15.4908 29.3917 16.0398 28.8397 16.4016 28.1683C16.7942 27.4184 16.9891 26.5807 16.9678 25.7345C16.9871 24.9285 16.807 24.1303 16.4436 23.4107C16.1068 22.7647 15.5866 22.2327 14.9482 21.8815ZM14.8465 27.5431C14.657 27.9824 14.3351 28.3516 13.9257 28.5993C13.5147 28.8349 13.0474 28.9547 12.5737 28.946C12.1091 28.9577 11.6512 28.8344 11.2552 28.5911C10.8637 28.3308 10.5579 27.9605 10.3764 27.5268C10.1466 26.9701 10.0373 26.3711 10.0556 25.7691C10.0357 25.1834 10.1452 24.6005 10.3764 24.0619C10.566 23.6387 10.882 23.2844 11.2809 23.0479C11.7072 22.8133 12.1884 22.6966 12.6749 22.7099C13.0548 22.7004 13.4323 22.7724 13.7821 22.9212C14.0883 23.0593 14.3555 23.2713 14.5595 23.5383C14.7773 23.828 14.9352 24.1583 15.0239 24.5097C15.1297 24.921 15.1808 25.3445 15.176 25.7691C15.1959 26.3773 15.0834 26.9825 14.8465 27.5431Z" fill="#7B0A02"/>
<path d="M21.7248 28.9027C21.6659 28.9092 21.6067 28.9122 21.5474 28.9117C21.4201 28.9153 21.2935 28.8922 21.1758 28.8438C21.0736 28.798 20.9859 28.7249 20.9224 28.6326C20.8489 28.5231 20.7999 28.399 20.7787 28.2689C20.7481 28.0961 20.7339 27.9207 20.7364 27.7453V17.3857L19.0124 17.6393V28.506C19.0052 28.7909 19.0511 29.0746 19.1478 29.3426C19.2287 29.5605 19.3622 29.7551 19.5365 29.9088C19.7098 30.0577 19.9152 30.1646 20.1365 30.2214C20.382 30.2852 20.6348 30.3165 20.8885 30.3144C21.0237 30.3144 21.153 30.3087 21.2773 30.2978C21.4015 30.2868 21.5223 30.2696 21.6406 30.2468C21.7589 30.224 21.8572 30.2017 21.936 30.1795L22.1051 28.8441L21.902 28.8779C21.835 28.8891 21.7758 28.8973 21.7248 28.9027Z" fill="#7B0A02"/>
<path d="M31.1807 21.526H29.0682L26.1763 24.7032H25.553V17.3857L23.8295 17.6393V30.1454H25.553V26.0048H25.5812L29.0341 30.1454H31.265L27.1656 25.526L31.1807 21.526Z" fill="#7B0A02"/>
<path d="M38.7349 22.6161C38.4105 22.1956 37.9824 21.8666 37.4927 21.6612C36.9485 21.4391 36.365 21.3298 35.7773 21.3401C35.1853 21.3301 34.5979 21.4452 34.0535 21.6781C33.5583 21.8949 33.117 22.218 32.7607 22.6245C32.3935 23.0515 32.1173 23.5489 31.9492 24.0864C31.7566 24.7015 31.6626 25.3431 31.6706 25.9876C31.6467 26.8019 31.8175 27.6102 32.1689 28.3452C32.4901 28.9821 33.0089 29.4979 33.6476 29.8155C34.3972 30.1686 35.2196 30.3394 36.0477 30.3141C36.4461 30.3174 36.8442 30.292 37.2389 30.238C37.569 30.1905 37.8942 30.1142 38.2109 30.0099C38.5249 29.9045 38.83 29.7745 39.1235 29.6211L39.2418 28.3199C39.0276 28.3987 38.8106 28.4776 38.5909 28.5565C38.3712 28.6353 38.1431 28.7058 37.9067 28.7677C37.668 28.8302 37.4252 28.8753 37.18 28.9027C36.9332 28.9311 36.6849 28.9453 36.4364 28.9452C35.9926 28.9523 35.5497 28.9041 35.1179 28.8015C34.7697 28.718 34.4475 28.5497 34.1802 28.3114C33.9103 28.0541 33.7122 27.7308 33.6057 27.3734C33.4952 27.0115 33.4332 26.6365 33.4214 26.2583H39.5288C39.6121 25.5592 39.5808 24.8512 39.4359 24.1621C39.3171 23.6021 39.0778 23.0745 38.7349 22.6161ZM34.476 23.0219C34.8724 22.7809 35.3304 22.6604 35.7942 22.6752C36.2584 22.652 36.7169 22.786 37.0955 23.0555C37.432 23.3241 37.6721 23.6948 37.7797 24.1117C37.8643 24.42 37.9058 24.7385 37.9031 25.0581H33.4586C33.4899 24.7211 33.5619 24.3891 33.6729 24.0694C33.8174 23.6411 34.0998 23.2727 34.476 23.0219Z" fill="#7B0A02"/>
<path d="M53.3193 21.695C52.8586 21.4447 52.3393 21.3222 51.8153 21.3401C51.3604 21.3388 50.9088 21.416 50.4802 21.5683C50.0449 21.7242 49.6349 21.9435 49.2636 22.2189C49.0531 22.375 48.8528 22.5442 48.664 22.7259C48.4907 22.3028 48.1851 21.9471 47.793 21.7119C47.3266 21.4604 46.8016 21.3379 46.272 21.357C45.8201 21.3572 45.3714 21.4344 44.9453 21.5852C44.508 21.7391 44.0953 21.9553 43.7198 22.2273C43.5984 22.3149 43.481 22.4099 43.3649 22.509V21.3578L41.6411 21.6114V30.1459H43.3649V23.718C43.568 23.585 43.7798 23.4655 43.9987 23.3605C44.2668 23.2339 44.5471 23.1348 44.8352 23.0648C45.1008 22.9993 45.3731 22.9652 45.6467 22.9633C45.8977 22.9558 46.1477 22.999 46.3816 23.0904C46.5753 23.1723 46.7465 23.2997 46.8804 23.4619C47.0271 23.6504 47.1283 23.8702 47.1762 24.1041C47.242 24.4066 47.2731 24.7156 47.2691 25.0252V30.1459H48.9929V24.67C48.9941 24.3467 48.9723 24.0238 48.9276 23.7036C49.123 23.5752 49.3253 23.4578 49.5337 23.3518C49.7972 23.2192 50.0749 23.1171 50.3615 23.0476C50.6327 22.9813 50.9108 22.9472 51.19 22.9462C51.4382 22.94 51.6851 22.9832 51.9166 23.073C52.1138 23.1532 52.2879 23.281 52.4237 23.445C52.5706 23.6332 52.6718 23.8529 52.7191 24.0869C52.7851 24.3893 52.8164 24.6982 52.8124 25.0077V30.1456H54.5362V24.6531C54.5577 24.0139 54.4544 23.3766 54.2319 22.7769C54.0567 22.3247 53.7355 21.9439 53.3193 21.695Z" fill="#7B0A02"/>
<path d="M62.7834 28.0416C62.6558 28.119 62.5299 28.1912 62.4029 28.2523C62.2021 28.3505 61.9963 28.438 61.7863 28.5145C61.5854 28.587 61.379 28.6436 61.1692 28.6835C60.9547 28.7236 60.737 28.7434 60.5188 28.7427C60.1613 28.7563 59.8063 28.6779 59.4879 28.5148C59.2144 28.3593 59.0026 28.1146 58.8879 27.8216C58.7485 27.458 58.6824 27.0704 58.6933 26.6811V21.3576L56.9695 21.6111V26.985C56.9487 27.6264 57.0609 28.2651 57.2991 28.8609C57.495 29.331 57.8473 29.719 58.2962 29.9595C58.7968 30.209 59.3513 30.331 59.9104 30.3147C60.2636 30.3171 60.6156 30.2745 60.9579 30.1879C61.2849 30.1034 61.6001 29.9785 61.8962 29.8161C62.2008 29.6487 62.4892 29.4534 62.7578 29.2328C62.8073 29.1925 62.8564 29.1452 62.9057 29.1027L63.155 30.1448H64.4901L64.5069 21.3568L62.7834 21.6102V28.0416Z" fill="#7B0A02"/>
<path d="M72.4836 26.2583C72.3107 26.0747 72.1114 25.918 71.8921 25.7933C71.6652 25.6634 71.4276 25.5532 71.1819 25.4638C71.0019 25.4075 70.8245 25.3483 70.6499 25.2863C70.4753 25.2243 70.3005 25.168 70.1257 25.1173C69.951 25.0666 69.7821 25.0131 69.6187 24.9568C69.4656 24.9047 69.3161 24.8426 69.1711 24.7708C69.0321 24.697 68.8993 24.6123 68.7737 24.5174C68.658 24.4301 68.5605 24.321 68.4867 24.1963C68.4121 24.0682 68.3739 23.922 68.3765 23.7738C68.372 23.6109 68.4131 23.4499 68.4952 23.309C68.5834 23.1706 68.7056 23.0572 68.8501 22.9795C69.0269 22.8825 69.218 22.814 69.4162 22.7764C69.664 22.7291 69.916 22.7065 70.1683 22.7091C70.2919 22.7091 70.4274 22.7149 70.5738 22.7259C70.7203 22.7369 70.8806 22.7572 71.0555 22.7854C71.2304 22.8136 71.4045 22.8502 71.5791 22.8947C71.7538 22.9392 71.9312 22.9907 72.1117 23.0471C72.2789 23.0985 72.4425 23.1606 72.6016 23.2332L72.7202 21.8641C72.5059 21.7741 72.2947 21.6951 72.0864 21.6272C71.8783 21.5599 71.6667 21.5034 71.4527 21.4581C71.2436 21.414 71.0319 21.383 70.8189 21.3652C70.6103 21.3483 70.4047 21.3399 70.2021 21.3399C69.7352 21.3351 69.2696 21.389 68.8162 21.5004C68.4285 21.5948 68.0599 21.7548 67.7262 21.9736C67.4238 22.1737 67.1767 22.4469 67.0079 22.7679C66.8313 23.1217 66.7442 23.5134 66.7544 23.9087C66.7491 24.1934 66.795 24.4767 66.8896 24.7453C66.9697 24.9707 67.0899 25.1796 67.2446 25.3621C67.3947 25.5346 67.5682 25.6854 67.76 25.81C67.9595 25.941 68.1718 26.0514 68.3937 26.1395C68.5173 26.1848 68.6469 26.2297 68.7825 26.2744C68.918 26.3191 69.0504 26.3615 69.1796 26.4017C69.3088 26.4411 69.4356 26.4805 69.5599 26.5197C69.6835 26.5594 69.8049 26.5986 69.9232 26.6381C70.0415 26.6775 70.157 26.7141 70.2697 26.7479C70.4209 26.8015 70.5677 26.8664 70.709 26.9422C70.8331 27.0078 70.9493 27.0872 71.0555 27.1788C71.149 27.2606 71.2238 27.3614 71.2749 27.4746C71.3268 27.5915 71.3528 27.7182 71.3512 27.8461C71.3572 27.9712 71.3353 28.096 71.287 28.2116C71.2388 28.3271 71.1655 28.4305 71.0724 28.5142C70.8631 28.6889 70.6132 28.808 70.3457 28.8604C70.0322 28.9296 69.7119 28.9636 69.3908 28.9618C69.1902 28.9606 68.9898 28.9464 68.7909 28.9195C68.5712 28.8914 68.3402 28.852 68.098 28.8013C67.8557 28.7506 67.6078 28.6886 67.3541 28.6154C67.101 28.5422 66.8447 28.4605 66.5854 28.3706L66.653 29.8071C66.9458 29.9085 67.2134 29.9902 67.4558 30.0521C67.6982 30.1141 67.9292 30.1676 68.1487 30.2127C68.3604 30.2566 68.5751 30.2848 68.7909 30.2972C68.9992 30.3083 69.2104 30.3139 69.4247 30.3139C69.8961 30.3163 70.3663 30.268 70.8274 30.1699C71.2333 30.0876 71.6219 29.9362 71.9765 29.7223C72.2961 29.5271 72.5608 29.2537 72.7455 28.928C72.9389 28.5705 73.035 28.1685 73.0241 27.7622C73.0312 27.4657 72.9825 27.1704 72.8807 26.8918C72.7899 26.6573 72.6551 26.4422 72.4836 26.2583Z" fill="#7B0A02"/>
<path d="M76.5469 17.8164C76.3716 17.7092 76.1696 17.6536 75.9641 17.6559C75.756 17.6543 75.5515 17.7098 75.3727 17.8164C75.1966 17.9198 75.0487 18.0649 74.942 18.2389C74.8347 18.4143 74.779 18.6164 74.7814 18.822C74.7796 19.0302 74.8352 19.2348 74.942 19.4135C75.0452 19.5903 75.1939 19.7362 75.3727 19.836C75.5532 19.9373 75.7571 19.9897 75.9641 19.9881C76.1685 19.9905 76.3698 19.9379 76.5469 19.836C76.7209 19.7355 76.8642 19.5894 76.9613 19.4135C77.0626 19.2329 77.1151 19.0291 77.1134 18.822C77.1157 18.6176 77.0631 18.4162 76.9613 18.2389C76.8606 18.0657 76.7182 17.9204 76.5469 17.8164Z" fill="#7B0A02"/>
<path d="M75.0693 30.1451H76.7931V21.357L75.0693 21.6105V30.1451Z" fill="#7B0A02"/>
<path d="M86.7811 21.526H84.6686L81.7766 24.7032H81.1534V17.3857L79.4295 17.6393V30.1454H81.1534V26.0048H81.1815L84.6345 30.1454H86.8653L82.7659 25.526L86.7811 21.526Z" fill="#7B0A02"/>
<path d="M93.5074 30.1451H95.7382L91.6388 25.5257L95.6536 21.526H93.5411L90.6492 24.7032H90.0259V17.3857L88.3021 17.6393V30.1454H90.0259V26.0048H90.0541L93.5074 30.1451Z" fill="#7B0A02"/>
</svg>

<svg xmlns="http://www.w3.org/2000/svg" viewBox="0 0 96 31"><path fill="#0A2343" d="M0 13V1.003h3.937V13H0ZM9.294 2.913 11.558 13H7.25L4.545 1h2.417a2.276 2.276 0 0 1 1.513.55c.42.346.71.826.819 1.36ZM12.149 13V1h3.938v12h-3.938Zm6.912-7.436a2.382 2.382 0 0 1-2.4-2.4 2.301 2.301 0 0 1 .321-1.2 2.41 2.41 0 0 1 3.278-.862c.356.21.653.506.862.862.215.363.326.778.321 1.2a2.35 2.35 0 0 1-.321 1.208 2.4 2.4 0 0 1-.862.87 2.302 2.302 0 0 1-1.2.322ZM22.05 13V1h3.938v12h-3.937Zm8.923-5.442c.01.012.095.15.253.414s.364.602.617 1.014a316.545 316.545 0 0 1 1.597 2.62c.247.41.529.876.845 1.394H29.96c-.27-.44-.516-.837-.736-1.192-.22-.355-.453-.738-.7-1.149a99.5 99.5 0 0 0-.736-1.2c-.242-.389-.45-.73-.625-1.022-.175-.293-.296-.49-.363-.592a1.747 1.747 0 0 1-.287-.845c.016-.29.11-.57.27-.811.067-.113.191-.313.371-.6s.392-.628.634-1.023c.242-.394.488-.797.736-1.208l.7-1.158.736-1.2h4.326l-3.346 5.46a1.08 1.08 0 0 0-.17.54c.012.202.082.396.203.558Z"/><path fill="#7B0A02" d="M0 30.145h1.775v-4.952h4.529l.186-1.47H1.775v-4.09h6.134v-1.487H0v12ZM14.948 21.881a4.638 4.638 0 0 0-2.29-.54 4.617 4.617 0 0 0-2.307.557 3.898 3.898 0 0 0-1.538 1.572 4.968 4.968 0 0 0-.55 2.4 5.183 5.183 0 0 0 .516 2.391c.324.65.84 1.184 1.48 1.53.687.36 1.454.54 2.23.524a4.765 4.765 0 0 0 2.332-.558 3.94 3.94 0 0 0 1.58-1.589c.393-.75.588-1.587.567-2.433a4.895 4.895 0 0 0-.524-2.324 3.695 3.695 0 0 0-1.496-1.53Zm-.101 5.662c-.19.44-.512.809-.921 1.056a2.622 2.622 0 0 1-1.352.347 2.403 2.403 0 0 1-1.319-.355 2.383 2.383 0 0 1-.879-1.064 4.267 4.267 0 0 1-.32-1.758c-.02-.586.09-1.168.32-1.707.19-.423.506-.778.905-1.014a2.736 2.736 0 0 1 1.394-.338c.38-.01.757.062 1.107.211.306.138.573.35.777.617.218.29.376.62.465.972.106.411.157.834.152 1.26a4.204 4.204 0 0 1-.33 1.773ZM21.725 28.903c-.06.006-.118.01-.178.009a.91.91 0 0 1-.371-.068.61.61 0 0 1-.254-.211.917.917 0 0 1-.143-.364 2.777 2.777 0 0 1-.043-.524v-10.36l-1.724.254v10.867c-.007.285.04.569.136.837a1.408 1.408 0 0 0 .989.878c.245.064.498.096.752.093.135 0 .264-.005.388-.016a3.704 3.704 0 0 0 .659-.118l.17-1.336-.204.034c-.067.011-.126.02-.177.025ZM31.18 21.526h-2.112l-2.892 3.177h-.623v-7.317l-1.724.253v12.506h1.724v-4.14h.028l3.453 4.14h2.231l-4.1-4.619 4.016-4ZM38.735 22.616a3.067 3.067 0 0 0-1.242-.955 4.338 4.338 0 0 0-1.716-.32 4.202 4.202 0 0 0-1.724.337c-.495.217-.936.54-1.292.947a4.135 4.135 0 0 0-.812 1.461 6.108 6.108 0 0 0-.278 1.902 5.118 5.118 0 0 0 .498 2.357c.321.637.84 1.153 1.479 1.47.75.354 1.572.524 2.4.5.398.002.796-.023 1.19-.077a5.704 5.704 0 0 0 1.886-.617l.118-1.301a89.57 89.57 0 0 1-.651.236c-.22.08-.448.15-.684.212a5.108 5.108 0 0 1-.727.135 6.482 6.482 0 0 1-.744.042 5.334 5.334 0 0 1-1.318-.143 2.17 2.17 0 0 1-.938-.49 2.14 2.14 0 0 1-.574-.939 4.275 4.275 0 0 1-.185-1.115h6.108c.083-.699.052-1.407-.093-2.096a3.95 3.95 0 0 0-.701-1.546Zm-4.259.406a2.39 2.39 0 0 1 1.318-.347c.464-.023.923.111 1.302.38.336.27.576.64.684 1.057.084.308.126.627.123.946H33.46c.03-.337.103-.669.214-.989.144-.428.427-.796.803-1.047ZM53.32 21.695a2.94 2.94 0 0 0-1.505-.355 3.953 3.953 0 0 0-1.335.228 4.706 4.706 0 0 0-1.216.65 6.13 6.13 0 0 0-.6.508 2.12 2.12 0 0 0-.871-1.014 2.978 2.978 0 0 0-1.521-.355c-.452 0-.9.077-1.327.228a4.812 4.812 0 0 0-1.58.924v-1.151l-1.724.253v8.535h1.724v-6.428c.203-.133.415-.253.634-.358.268-.126.548-.225.836-.295.266-.066.538-.1.812-.102.25-.007.5.036.735.127.193.082.364.21.498.372.147.188.248.408.296.642.066.303.097.612.093.921v5.12h1.724V24.67a6.806 6.806 0 0 0-.065-.966c.195-.129.397-.246.606-.352.263-.133.54-.235.828-.304.27-.067.549-.1.828-.102a1.88 1.88 0 0 1 .727.127c.197.08.37.208.507.372.147.188.248.408.295.642.066.302.097.611.093.92v5.139h1.724v-5.493a4.918 4.918 0 0 0-.304-1.876 2.177 2.177 0 0 0-.913-1.082ZM62.783 28.042c-.127.077-.253.15-.38.21-.2.099-.407.186-.617.263-.2.072-.407.129-.617.168-.214.04-.432.06-.65.06a2.087 2.087 0 0 1-1.031-.228 1.373 1.373 0 0 1-.6-.693 2.955 2.955 0 0 1-.195-1.14v-5.324l-1.724.253v5.374c-.02.641.092 1.28.33 1.876.196.47.548.858.997 1.098.5.25 1.055.372 1.614.356a4.067 4.067 0 0 0 1.986-.499 5.63 5.63 0 0 0 .862-.583c.05-.04.098-.088.148-.13l.249 1.042h1.335l.017-8.788-1.724.253v6.432ZM72.484 26.258a2.53 2.53 0 0 0-.592-.465 4.584 4.584 0 0 0-.71-.33c-.18-.056-.358-.115-.532-.177a9.35 9.35 0 0 0-.524-.169c-.175-.05-.344-.104-.507-.16a3.68 3.68 0 0 1-.448-.186 2.967 2.967 0 0 1-.397-.254 1.111 1.111 0 0 1-.287-.32.812.812 0 0 1-.11-.423.875.875 0 0 1 .118-.465.96.96 0 0 1 .355-.33c.177-.096.368-.165.566-.203.248-.047.5-.07.752-.067a5.457 5.457 0 0 1 .887.076c.175.029.35.065.524.11.175.044.352.096.533.152.167.052.33.114.49.186l.118-1.369a8.206 8.206 0 0 0-.634-.237 6.3 6.3 0 0 0-.633-.169 5.15 5.15 0 0 0-.634-.093 7.637 7.637 0 0 0-.617-.025 5.568 5.568 0 0 0-1.386.16 3.496 3.496 0 0 0-1.09.474c-.302.2-.55.473-.718.794a2.415 2.415 0 0 0-.254 1.14c-.005.285.041.569.136.837.08.226.2.435.355.617.15.173.323.323.515.448.2.131.412.241.634.33a24.537 24.537 0 0 0 .786.262 41.906 41.906 0 0 1 .743.236c.118.04.234.076.347.11.15.053.298.118.439.194.124.066.24.145.346.237a.867.867 0 0 1 .296.667.843.843 0 0 1-.279.668 1.62 1.62 0 0 1-.726.346c-.314.07-.634.104-.955.102a4.686 4.686 0 0 1-.6-.043 8.902 8.902 0 0 1-.693-.118 10.28 10.28 0 0 1-.744-.186c-.253-.073-.51-.154-.769-.244l.068 1.436c.293.102.56.183.803.245.242.062.473.116.693.16.211.045.426.073.642.085.208.011.42.017.634.017a6.58 6.58 0 0 0 1.402-.144 3.615 3.615 0 0 0 1.15-.448c.32-.195.584-.468.769-.794.193-.358.289-.76.278-1.166a2.371 2.371 0 0 0-.143-.87 1.974 1.974 0 0 0-.397-.634ZM76.547 17.816a1.094 1.094 0 0 0-.583-.16 1.138 1.138 0 0 0-.591.16 1.244 1.244 0 0 0-.431.423 1.093 1.093 0 0 0-.16.583c-.002.208.053.413.16.591.103.177.252.323.43.423.181.101.385.154.592.152.204.003.406-.05.583-.152.174-.1.317-.247.414-.422.102-.181.154-.385.152-.592a1.145 1.145 0 0 0-.152-.583 1.2 1.2 0 0 0-.414-.423ZM75.07 30.145h1.723v-8.788l-1.724.253v8.535ZM86.781 21.526H84.67l-2.892 3.177h-.624v-7.317l-1.724.253v12.506h1.724v-4.14h.028l3.454 4.14h2.23l-4.1-4.619 4.016-4ZM93.507 30.145h2.231l-4.1-4.62 4.016-3.999H93.54l-2.892 3.177h-.623v-7.317l-1.724.253v12.506h1.724v-4.14h.028l3.453 4.14Z"/></svg>
